X:1
T:Title
%%score { ( 1 4 ) | ( 2 3 ) }
L:1/8
M:4/4
K:Bb
V:1 treble nm="Grand Piano"
V:4 treble 
V:2 bass 
V:3 bass 
V:1
 z4 z2[Q:1/4=100] D>E | [DF]2 [Fd]2 [DB]2 C>D | [CE]2 [Ec]2 [CA]2 C>D | [CE]2 [Ec]>B A2 C>G | %4
 [DF]6 D>E | [DF]2 [Fd]2 [DB]2 C>D | [CE]2 [Ec]2 [CA]2 C>[=B,D] | [CE]2 [Ec]>B [FA][EG][EF][Ec] | %8
[M:3/4] [DB]6 |[M:1/4][Q:1/4=94] AB |[M:4/4] z4 c2 z2 | z4 d2 z2 | [Ee][Ge]FE d[Fd]ED | %13
[M:17/16] c<c[=Ed]=ef-<fd3/2c |[M:4/4] BFBc d2 [FB]2 | z4 z2 .c2 | AB c>[^Fd] [Fe][Ac]GA | %17
[M:7/8] c- c3 z z2 |] %18
V:2
 z4 z2 B,>C | B,,2 D,F, B,2 A,>B, | F,,2 A,,C, F,2 A,>B, | F,,2 .A,,>=E [F,F]2 z z/ _D/ | %4
 B,,2 D,F, B,2 B,>C | B,,2 D,F, B,2 A,>B, | F,,2 A,,C, F,2 E,>D, | C,B,, .A,,>=E F,,A,,C,[F,A,] | %8
[M:3/4] [B,,F,B,]6 |[M:1/4] [F,C][F,B,D] | %10
[M:4/4] [F,A,E][F,A,E][A,CE][G,B,E] .[F,A,E]2 [D,G,][C,A,] | %11
 [B,,B,][B,,B,][D,B,][F,A,E] .[B,D]2 [F,A,E][B,,_A,] | %12
 [E,G,][F,A,][G,B,][A,C] [B,D][D,B,][C,A,][=B,,_A,] | %13
[M:17/16] [A,C]<[A,F]G,[B,G][F,,A,F]-<[F,,A,F][K:treble]F3/2E | %14
[M:4/4][K:bass] [D,B,D][D,B,][K:treble][G,B,D][F,A,F] [B,F]2[K:bass] [D,B,]2 | %15
 [E,B,][E,B,][E,B,][D,=B,] [C,C]2 E,=E, | [F,EF][F,DF] [F,CF]>[F,=B,] [F,C][F,F][F,E][F,C^F] | %17
[M:7/8] A,2 z z z z2 |] %18
V:3
 x8 | x8 | x8 | z2 z C, z4 | x8 | x8 | x8 | z2 z G,, z4 |[M:3/4] x6 |[M:1/4] x2 |[M:4/4] x8 | x8 | %12
 x8 |[M:17/16] C,-<C,C,-<C, z/ z/ z/ z/[K:treble] z/ z/ z/ z | %14
[M:4/4][K:bass] x2[K:treble] x4[K:bass] x2 | x8 | x8 |[M:7/8] [F,E]- [F,E]3 [B,,B,]3 |] %18
V:4
 x8 | x8 | x8 | x8 | x8 | x8 | z4 z2 G,2 | G,4 z4 |[M:3/4] x6 |[M:1/4] x2 | %10
[M:4/4] cFFF z E,[EB][Ec] | [Dd][DF]FF z Fc[Fd] | x8 |[M:17/16] x17/2 |[M:4/4] x8 | %15
 [EG][Gc][Gc][Gd] [Ge]2 [CG]-[CGB] | x8 |[M:7/8] z2 G, A, [DB]3 |] %18

